X: 385
P: Longways for &c.
M: C|
L: 1/8
K: G
V: 1
V: 2 clef=bass middle=d
z | G2gd A2B2 | c2zB c2zB | Aaec B2GB | A2d2 e2E |]
z | G2zd B2GB | c2zB c2zd | edcA B2GB | A2d2 e2E |]

